assets/Cancer/Flat/cancer_flat.svg

<svg width="32" height="32" viewBox="0 0 32 32" fill="none" xmlns="http://www.w3.org/2000/svg">
<path d="M2 6C2 3.79086 3.79086 2 6 2H26C28.2091 2 30 3.79086 30 6V26C30 28.2091 28.2091 30 26 30H6C3.79086 30 2 28.2091 2 26V6Z" fill="#8D65C5"/>
<path d="M17.06 11.39C17.06 9.64 16.28 8.07 15.05 7.02C18.97 7.21 22.53 9.27 24.64 12.62C24.83 12.92 25.15 13.09 25.49 13.09C25.67 13.09 25.86 13.04 26.02 12.93C26.49 12.63 26.63 12.02 26.33 11.55C25.09 9.58 23.36 7.94 21.33 6.8C19.24 5.62 16.86 5 14.45 5C12.63 5 10.86 5.34 9.18996 6.02C9.18996 6.02 9.17996 6.02 9.17996 6.03C7.03996 6.87 5.51996 8.95 5.51996 11.39C5.51996 14.57 8.10996 17.16 11.29 17.16C14.47 17.16 17.06 14.57 17.06 11.39ZM15.06 11.39C15.06 13.47 13.37 15.16 11.29 15.16C9.20996 15.16 7.51996 13.47 7.51996 11.39C7.51996 9.31 9.20996 7.62 11.29 7.62C13.37 7.62 15.06 9.31 15.06 11.39Z" fill="white"/>
<path d="M20.71 14.84C23.89 14.84 26.48 17.43 26.48 20.61C26.48 23.04 24.96 25.13 22.82 25.97C22.82 25.975 22.8187 25.9787 22.8187 25.9787C22.8187 25.9787 22.815 25.98 22.81 25.98C21.14 26.66 19.37 27 17.55 27C15.14 27 12.76 26.38 10.67 25.2C8.63997 24.06 6.90997 22.42 5.66997 20.45C5.36997 19.98 5.50997 19.37 5.97997 19.07C6.44997 18.77 7.05997 18.91 7.35997 19.38C9.46997 22.73 13.03 24.79 16.95 24.98C15.72 23.93 14.94 22.36 14.94 20.61C14.94 17.43 17.53 14.84 20.71 14.84ZM16.94 20.61C16.94 22.69 18.63 24.38 20.71 24.38C22.79 24.38 24.48 22.69 24.48 20.61C24.48 18.53 22.79 16.84 20.71 16.84C18.63 16.84 16.94 18.53 16.94 20.61Z" fill="white"/>
</svg>

<svg xmlns="http://www.w3.org/2000/svg" width="32" height="32" fill="none"><path fill="#8D65C5" d="M2 6a4 4 0 0 1 4-4h20a4 4 0 0 1 4 4v20a4 4 0 0 1-4 4H6a4 4 0 0 1-4-4V6Z"/><path fill="#fff" d="M17.06 11.39c0-1.75-.78-3.32-2.01-4.37 3.92.19 7.48 2.25 9.59 5.6.19.3.51.47.85.47.18 0 .37-.05.53-.16.47-.3.61-.91.31-1.38A14.05 14.05 0 0 0 14.45 5c-1.82 0-3.59.34-5.26 1.02 0 0-.01 0-.01.01a5.76 5.76 0 0 0-3.66 5.36c0 3.18 2.59 5.77 5.77 5.77 3.18 0 5.77-2.59 5.77-5.77Zm-2 0c0 2.08-1.69 3.77-3.77 3.77s-3.77-1.69-3.77-3.77 1.69-3.77 3.77-3.77 3.77 1.69 3.77 3.77Z"/><path fill="#fff" d="M20.71 14.84c3.18 0 5.77 2.59 5.77 5.77a5.77 5.77 0 0 1-3.66 5.36l-.001.009-.009.001c-1.67.68-3.44 1.02-5.26 1.02a14.05 14.05 0 0 1-11.88-6.55.994.994 0 0 1 .31-1.38.994.994 0 0 1 1.38.31c2.11 3.35 5.67 5.41 9.59 5.6a5.732 5.732 0 0 1-2.01-4.37c0-3.18 2.59-5.77 5.77-5.77Zm-3.77 5.77c0 2.08 1.69 3.77 3.77 3.77s3.77-1.69 3.77-3.77-1.69-3.77-3.77-3.77-3.77 1.69-3.77 3.77Z"/></svg>
